app/assets/icons/polaris/ThumbsDownMajor.svg

<svg viewBox="0 0 20 20" xmlns="http://www.w3.org/2000/svg"><path d="M1.008 13a.904.904 0 0 0 .896 1.023c.387 0 2.01-.007 3.488-.013l2.608-.01c-.059 0-1.234 2.103-1.234 3.29a2.711 2.711 0 0 0 2.713 2.71l2.712-6h1.809v-11h-2.382a1.81 1.81 0 0 1-.809-.19l-.753-.377c-1.056-.433-2.456-.433-4.282-.433h-1.915c-.68 0-1.255.503-1.345 1.176l-1.506 9.824zm16.492 1a1.5 1.5 0 0 0 1.5-1.5v-8a1.5 1.5 0 0 0-1.5-1.5h-1.5v11h1.5z"/></svg>

<svg viewBox="0 0 20 20" xmlns="http://www.w3.org/2000/svg"><path d="M1.008 13a.904.904 0 0 0 .896 1.023c.387 0 2.01-.007 3.488-.013L8 14c-.059 0-1.234 2.103-1.234 3.29A2.711 2.711 0 0 0 9.479 20l2.712-6H14V3h-2.382a1.81 1.81 0 0 1-.809-.19l-.753-.377C9 2 7.6 2 5.774 2H3.859c-.68 0-1.255.503-1.345 1.176L1.008 13zM17.5 14a1.5 1.5 0 0 0 1.5-1.5v-8A1.5 1.5 0 0 0 17.5 3H16v11h1.5z"/></svg>
